Sources/FrostedUI/Resources/Icons.xcassets/camera20.imageset/camera-20.svg

<svg width="20" height="20" viewBox="0 0 20 20" fill="none" xmlns="http://www.w3.org/2000/svg" data-fui-icon="true">
  <path
    d="M11.8945 1C13.1483 1.00003 14.3192 1.6267 15.0146 2.66992L15.4473 3.31836C15.7309 3.74385 16.2084 3.99986 16.7197 4C18.3931 4 19.75 5.35693 19.75 7.03027V15.25C19.75 17.3211 18.0711 19 16 19H4C1.92893 19 0.25 17.3211 0.25 15.25V7.03027C0.25 5.35693 1.60693 4 3.28027 4C3.79163 3.99986 4.26907 3.74385 4.55273 3.31836L4.98535 2.66992C5.68083 1.6267 6.85168 1.00003 8.10547 1H11.8945ZM8.10547 2.5C7.35321 2.50003 6.65068 2.87603 6.2334 3.50195L5.80078 4.15039C5.23892 4.99318 4.29316 5.49986 3.28027 5.5C2.43536 5.5 1.75 6.18536 1.75 7.03027V15.25C1.75 16.4926 2.75736 17.5 4 17.5H16C17.2426 17.5 18.25 16.4926 18.25 15.25V7.03027C18.25 6.18536 17.5646 5.5 16.7197 5.5C15.7068 5.49986 14.7611 4.99318 14.1992 4.15039L13.7666 3.50195C13.3493 2.87603 12.6468 2.50003 11.8945 2.5H8.10547ZM10 6.5C12.3472 6.5 14.25 8.40279 14.25 10.75C14.25 13.0972 12.3472 15 10 15C7.65279 15 5.75 13.0972 5.75 10.75C5.75 8.40279 7.65279 6.5 10 6.5ZM10 8C8.48122 8 7.25 9.23122 7.25 10.75C7.25 12.2688 8.48122 13.5 10 13.5C11.5188 13.5 12.75 12.2688 12.75 10.75C12.75 9.23122 11.5188 8 10 8Z"
    fill="currentColor"
  />
</svg>

<svg xmlns="http://www.w3.org/2000/svg" width="20" height="20" fill="none" data-fui-icon="true" viewBox="0 0 20 20"><path fill="currentColor" d="M11.895 1a3.75 3.75 0 0 1 3.12 1.67l.432.648A1.53 1.53 0 0 0 16.72 4a3.03 3.03 0 0 1 3.03 3.03v8.22A3.75 3.75 0 0 1 16 19H4a3.75 3.75 0 0 1-3.75-3.75V7.03A3.03 3.03 0 0 1 3.28 4a1.53 1.53 0 0 0 1.273-.682l.432-.648A3.75 3.75 0 0 1 8.105 1zm-3.79 1.5a2.25 2.25 0 0 0-1.872 1.002l-.432.648A3.03 3.03 0 0 1 3.28 5.5 1.53 1.53 0 0 0 1.75 7.03v8.22A2.25 2.25 0 0 0 4 17.5h12a2.25 2.25 0 0 0 2.25-2.25V7.03a1.53 1.53 0 0 0-1.53-1.53 3.03 3.03 0 0 1-2.52-1.35l-.433-.648A2.25 2.25 0 0 0 11.895 2.5zM10 6.5a4.25 4.25 0 1 1 0 8.5 4.25 4.25 0 0 1 0-8.5M10 8a2.75 2.75 0 1 0 0 5.5A2.75 2.75 0 0 0 10 8"/></svg>
